X:480
T:Reel 480
M:4/4
K:Cmaj
L:1/8
BGGf ecdB|cBGA BDDc|Bcde f2Bd|cBcd ecde|fddc Bcde|fdBd f2ef| (3gfe  (3fed ecdB|cBGA Bcdc|
